icons/rain-night.svg

<svg width="54" height="53" viewBox="0 0 54 53" fill="none" xmlns="http://www.w3.org/2000/svg">
<path d="M0 27.4498C0 30.608 1.1358 33.3387 3.4321 35.5945C5.72839 37.8504 8.51852 39.0851 11.8272 39.2276C12.0988 39.2276 12.2469 39.0851 12.2469 38.8239V35.5708C12.2469 35.2858 12.0988 35.1434 11.8272 35.1434C9.67901 34.9771 7.87654 34.1698 6.41975 32.6738C4.96296 31.2016 4.22222 29.4444 4.22222 27.4261C4.22222 25.4552 4.91358 23.7693 6.2963 22.297C7.67901 20.8248 9.40741 19.9937 11.4815 19.7563L12.7901 19.5901C13.1111 19.5901 13.2839 19.4476 13.2839 19.1864L13.4568 17.9516C13.7284 15.3871 14.8395 13.2263 16.8395 11.5166C18.8395 9.78315 21.1852 8.92831 23.8765 8.92831C26.5679 8.92831 28.9136 9.78315 30.9136 11.5166C32.9136 13.2263 34.0741 15.3871 34.3457 17.9754L34.5432 19.3526C34.5432 19.6375 34.6914 19.78 34.9877 19.78H38.963C41.1852 19.78 43.0864 20.5399 44.6914 22.0358C46.2716 23.5318 47.0864 25.3365 47.0864 27.4498C47.0864 29.4682 46.3457 31.2254 44.8889 32.6976C43.4321 34.1698 41.6049 35.0009 39.4815 35.1671C39.1605 35.1671 38.9877 35.3096 38.9877 35.5945V38.8477C38.9877 39.1089 39.1605 39.2513 39.4815 39.2513C42.7654 39.1564 45.5556 37.9453 47.8272 35.6658C50.0988 33.3862 51.2346 30.6555 51.2346 27.4736C51.2346 25.4077 50.6914 23.4843 49.6296 21.7034C51.6296 19.97 52.9383 17.9041 53.5309 15.4821V15.1734L54 13.2975L52.1235 12.7988C50.1235 12.2289 48.5679 11.1366 47.4568 9.59319C46.3457 8.02599 45.8025 6.41129 45.8025 4.77285C45.8025 4.15547 45.8765 3.53808 46 2.9207L46.4938 1.02106L44.3951 0.42742L44.0247 0.332437C42.8642 0.118727 41.8519 0 40.9383 0C40 0 39.0617 0.0949823 38.1235 0.308692C37.1605 0.522402 36.1728 0.831093 35.1605 1.28226C34.1235 1.73342 33.1358 2.35081 32.1975 3.1819C31.2593 4.01299 30.4198 4.98656 29.7284 6.1026C27.9012 5.319 25.9506 4.93907 23.9012 4.93907C20.4198 4.93907 17.3333 5.98387 14.642 8.04973C11.9506 10.1156 10.2716 12.7751 9.53086 16.0282C6.76543 16.6456 4.46913 17.9991 2.69136 20.1125C0.888888 22.2733 0 24.7191 0 27.4498ZM33.358 8.21595C34.1481 6.8862 35.2346 5.8414 36.642 5.10529C38.0494 4.36918 39.5309 3.98925 41.1111 3.98925H41.6296C41.6049 4.20296 41.6049 4.4879 41.6049 4.89158C41.6049 7.1474 42.2469 9.2845 43.5309 11.3266C44.8148 13.3687 46.6173 14.9122 48.8889 15.9807C48.3457 17.0018 47.7037 17.8804 46.963 18.5927C44.6667 16.6694 41.9753 15.7195 38.9383 15.7195H38.1481C37.5309 12.8938 35.9506 10.4005 33.358 8.21595Z" fill="#FFFBE9"/>
<path d="M13.3333 43.5255C13.3333 43.8817 13.4568 44.2379 13.7037 44.5941C13.9506 44.9503 14.321 45.2115 14.8148 45.3777C15.358 45.5439 15.8765 45.5202 16.3951 45.259C16.9136 44.9978 17.2346 44.5941 17.4074 44.0479L21.4074 30.228C21.5802 29.6819 21.5309 29.1595 21.2346 28.7083C20.9383 28.2334 20.5185 27.9247 19.9753 27.7823C19.3827 27.6398 18.8148 27.6873 18.321 27.9485C17.8272 28.2097 17.5062 28.6133 17.3333 29.1832L13.4568 42.8844C13.3827 43.2643 13.3333 43.478 13.3333 43.5255Z" fill="#FFFBE9"/>
<path d="M19.6296 50.9341C19.6296 51.3378 19.7531 51.7177 20 52.0977C20.2469 52.4776 20.6173 52.7388 21.1111 52.8813L21.1589 52.8938C21.4033 52.958 21.563 53 21.679 53C21.9012 53 22.1975 52.9288 22.6173 52.7625C23.1111 52.5726 23.4568 52.1214 23.679 51.4565L27.6543 37.6129C27.8272 37.1142 27.7778 36.6156 27.5062 36.1407C27.2346 35.6658 26.8395 35.3333 26.2963 35.1671C25.7037 35.0246 25.1358 35.0959 24.6173 35.3571C24.0988 35.6183 23.7531 36.0694 23.5802 36.6156L19.7037 50.3405C19.6543 50.5305 19.6296 50.7442 19.6296 50.9341Z" fill="#FFFBE9"/>
<path d="M29.8519 43.7867C29.8519 44.6891 30.3704 45.259 31.4321 45.5677C31.6543 45.6151 31.8519 45.6389 32.0247 45.6389C32.3951 45.6389 32.6914 45.5914 32.9383 45.4727C33.4568 45.2827 33.8272 44.8315 34.0247 44.1192L38.0741 30.323C38.2222 29.8006 38.1481 29.302 37.8765 28.8271C37.6049 28.3521 37.1358 28.0435 36.5679 27.8772C36.0247 27.711 35.5062 27.7585 35.0123 28.0435C34.5185 28.3284 34.1975 28.7321 34.0247 29.2782L29.9506 43.0744C29.9506 43.1219 29.9259 43.2406 29.9012 43.4306C29.8519 43.5968 29.8519 43.7155 29.8519 43.7867Z" fill="#FFFBE9"/>
</svg>

<?xml version="1.0" encoding="UTF-8"?><svg id="Layer_2" xmlns="http://www.w3.org/2000/svg" viewBox="0 0 54 53"><defs><style>.cls-1{fill:#e7f3f6;}</style></defs><g id="Layer_1-2"><g id="rain-night"><path class="cls-1" d="M52.12,12.8c-2-.57-3.56-1.66-4.67-3.21-1.11-1.57-1.65-3.18-1.65-4.82,0-.62,.07-1.23,.2-1.85l.49-1.9-2.1-.59-.37-.09c-1.16-.21-2.17-.33-3.09-.33s-1.88,.09-2.81,.31c-.96,.21-1.95,.52-2.96,.97-1.04,.45-2.02,1.07-2.96,1.9-.94,.83-1.78,1.8-2.47,2.92-1.83-.78-3.78-1.16-5.83-1.16-3.48,0-6.57,1.04-9.26,3.11-2.69,2.07-4.37,4.73-5.11,7.98-2.77,.62-5.06,1.97-6.84,4.08-1.8,2.16-2.69,4.61-2.69,7.34,0,3.16,1.14,5.89,3.43,8.14,2.3,2.26,5.09,3.49,8.4,3.63,.27,0,.42-.14,.42-.4v-3.25c0-.28-.15-.43-.42-.43-2.15-.17-3.95-.97-5.41-2.47-1.46-1.47-2.2-3.23-2.2-5.25s.69-3.66,2.07-5.13c1.38-1.47,3.11-2.3,5.19-2.54l1.31-.17c.32,0,.49-.14,.49-.4l.17-1.23c.27-2.56,1.38-4.73,3.38-6.43,2-1.73,4.35-2.59,7.04-2.59s5.04,.85,7.04,2.59c2,1.71,3.16,3.87,3.43,6.46l.2,1.38c0,.28,.15,.43,.44,.43h3.98c2.22,0,4.12,.76,5.73,2.26,1.58,1.5,2.4,3.3,2.4,5.41s-.74,3.78-2.2,5.25c-1.46,1.47-3.28,2.3-5.41,2.47-.32,0-.49,.14-.49,.43v3.25c0,.26,.17,.4,.49,.4,3.28-.09,6.07-1.31,8.35-3.59,2.27-2.28,3.41-5.01,3.41-8.19,0-2.07-.54-3.99-1.61-5.77,2-1.73,3.31-3.8,3.9-6.22v-.31l.47-1.88-1.88-.5Zm-5.16,5.79c-2.3-1.92-4.99-2.87-8.02-2.87h-.79c-.62-2.83-2.2-5.32-4.79-7.5,.79-1.33,1.88-2.37,3.28-3.11,1.41-.74,2.89-1.12,4.47-1.12h.52c-.02,.21-.02,.5-.02,.9,0,2.26,.64,4.39,1.93,6.43,1.28,2.04,3.09,3.59,5.36,4.65-.54,1.02-1.19,1.9-1.93,2.61Z"/><path class="cls-1" d="M21.23,28.71c-.3-.47-.72-.78-1.26-.93-.59-.14-1.16-.1-1.65,.17-.49,.26-.81,.66-.99,1.23l-3.88,13.7c-.07,.38-.12,.59-.12,.64,0,.36,.12,.71,.37,1.07,.25,.36,.62,.62,1.11,.78,.54,.17,1.06,.14,1.58-.12,.52-.26,.84-.66,1.01-1.21l4-13.82c.17-.55,.12-1.07-.17-1.52Z"/><path class="cls-1" d="M26.3,35.17c-.59-.14-1.16-.07-1.68,.19-.52,.26-.86,.71-1.04,1.26l-3.88,13.72c-.05,.19-.07,.4-.07,.59,0,.4,.12,.78,.37,1.16,.25,.38,.62,.64,1.11,.78h.05c.24,.08,.4,.12,.52,.12,.22,0,.52-.07,.94-.24,.49-.19,.84-.64,1.06-1.31l3.98-13.84c.17-.5,.12-1-.15-1.47-.27-.47-.67-.81-1.21-.97Z"/><path class="cls-1" d="M36.57,27.88c-.54-.17-1.06-.12-1.56,.17-.49,.28-.81,.69-.99,1.23l-4.07,13.8s-.02,.17-.05,.36c-.05,.17-.05,.28-.05,.36,0,.9,.52,1.47,1.58,1.78,.22,.05,.42,.07,.59,.07,.37,0,.67-.05,.91-.17,.52-.19,.89-.64,1.09-1.35l4.05-13.8c.15-.52,.07-1.02-.2-1.5-.27-.48-.74-.78-1.31-.95Z"/></g></g></svg>
